public/art/icons/classes/monk.svg

<svg xmlns="http://www.w3.org/2000/svg" viewBox="0 0 24 24" fill="currentColor">
  <!-- Monk: Clenched fist -->
  <path d="M7 13v-2a1 1 0 0 1 2 0v-2a1 1 0 0 1 2 0v-1.5a1 1 0 0 1 2 0V9a1 1 0 0 1 2 0v4"/>
  <path d="M6.5 11.5C6.5 10.1 7.6 9 9 9V7.5C9 6.7 9.7 6 10.5 6s1.5.7 1.5 1.5V7c0-.8.7-1.5 1.5-1.5S15 6.2 15 7v2c0-.8.7-1.5 1.5-1.5s1.5.7 1.5 1.5v5c0 3.3-2.7 6-6 6h-1c-2.8 0-5-2.2-5-5v-2c0-.8.4-1.5 1-2z"/>
  <path d="M9 9v2M11 7.5v3.5M13 7v4M15 7.5v3.5" stroke="currentColor" stroke-width="0.5" opacity="0.2"/>
</svg>

<svg xmlns="http://www.w3.org/2000/svg" fill="currentColor" viewBox="0 0 24 24"><path d="M7 13v-2a1 1 0 0 1 2 0V9a1 1 0 0 1 2 0V7.5a1 1 0 0 1 2 0V9a1 1 0 0 1 2 0v4"/><path d="M6.5 11.5C6.5 10.1 7.6 9 9 9V7.5c0-.8.7-1.5 1.5-1.5s1.5.7 1.5 1.5V7c0-.8.7-1.5 1.5-1.5S15 6.2 15 7v2c0-.8.7-1.5 1.5-1.5S18 8.2 18 9v5c0 3.3-2.7 6-6 6h-1c-2.8 0-5-2.2-5-5v-2c0-.8.4-1.5 1-2z"/><path stroke="currentColor" stroke-width=".5" d="M9 9v2m2-3.5V11m2-4v4m2-3.5V11" opacity=".2"/></svg>
